X: 11212
T: She rose and let me out
%R: air, march
B: James Oswald "The Caledonian Pocket Companion" v.1 b.1 p.21 #2
Z: 2020 John Chambers <jc:trillian.mit.edu>
N: The initial "Ande" with the 'e' elevated is probably "Andante" abbreviated.
M: C
L: 1/8
K: Bm
"And.e"B2 |\
B2f2 f2b2 | ^a3^g f2=g2 | f2ed cded | Tc6 dc |\
B2f2 f2b2 | a3b c'2g2 | f2d'2 d'c'b^a | b6 :|
|: bc' |\
d'2c'b T^a2^gf | b^abc' d'2f2 | egfe dfed | Tc6 bc' |\
d'2c'b T^a2^gf | b^abc' d'2f2 | e2d2 c2b^a | b6 :|
